!!!COM: Mozart, Wolfgang Amadeus
!!!OTL: Musikalische Würfelspiele, Kontre-Tänze
!!!SCA: K<sup>6</sup> Anh. C30.01 (K<sup>3</sup> Anh. 294d)
**kern	**kern
*staff2	*staff2
*clefF4	*clefG2
*M2/4	*M2/4
*MM110	*MM110
*>[A,A1,A,A2,B]	*>[A,A1,A,A2,B]
*>norep[A,A2,B]	*>norep[A,A2,B]
*>A	*>A
=142	=142
8C	8cc
16C	8g
16C	.
8C	8cc
8GG	8ee
=64	=64
4C	16gg
.	16ee
.	16ff
.	16dd
4r	16cc
.	16gg
.	16ee
.	16cc
=100	=100
4GG	16b
.	16a
.	16g
.	16a
4GG	16b
.	16cc
.	16dd
.	16b
=69	=69
4C	8cc
.	16g
.	16e
4r	8c
.	8c
=147	=147
4D	16dd
.	16ee
.	16ff#
.	16gg
4F#	16aa
.	16ff#
.	16ee
.	16dd
=67	=67
4G	8gg
.	16bb
.	16gg
4BB	8dd
.	16gg
.	16dd
=49	=49
4C	16ee
.	16cc
.	16b
.	16a
8D	16g
.	16b
8DD	16f#
.	16a
=102	=102
*>A1	*>A1
16BB	4g 4b 4gg
16GG	.
16BB	.
16D	.
16G	4r
16F	.
16E	.
16D	.
=102:|!	=102:|!
*>A2	*>A2
16BB	4g 4b 4gg
16GG	.
16BB	.
16D	.
16GG	4r
16AA	.
16BB	.
16C#	.
=116||	=116||
*>B	*>B
8D	8dd
16C#	4ff#
16D	.
16Cn	.
16D	.
16C	8aa
16D	.
=91	=91
16BB	4gg
16D	.
16G	.
16D	.
16BB	8bb
16GG	.
16AA	8r
16BB	.
=119	=119
4C	8gg
.	8ccc
4C	8gg
.	8ee
=9	=9
4GG	8dd
.	8b
16G	4g
16F	.
16E	.
16D	.
=94	=94
16C	8cc
16E	.
16G	8ee
16E	.
16C	8gg
16E	.
16G	8ee
16E	.
=48	=48
4C	8cc
.	16cc
.	16ee
4r	8gg
.	16gg
.	16ee
=96	=96
16G	8dd
16D	.
16BB	8dd
16GG	.
16G	8b
16D	.
16BB	8b
16GG	.
=74	=74
4C	4cc
4CC	4c
==	==
*-	*-
